assets/images/icons/browse.svg

<?xml version="1.0" encoding="utf-8"?>
<!-- Generator: Adobe Illustrator 22.0.1, SVG Export Plug-In . SVG Version: 6.00 Build 0)  -->
<svg version="1.1" id="Layer_1" xmlns="http://www.w3.org/2000/svg" xmlns:xlink="http://www.w3.org/1999/xlink" x="0px" y="0px"
	 viewBox="0 0 512 512" style="enable-background:new 0 0 512 512;" xml:space="preserve">
<style type="text/css">
	.st0{fill:none;stroke:#FFFFFF;stroke-width:10;stroke-linecap:round;stroke-linejoin:round;stroke-miterlimit:10;}
</style>
<g id="Page-1">
	<g id="icon-96-folders">
		<path id="folders" class="st0" d="M446.1,263.7v153.3c0,16.1-13,29.2-29.1,29.2H51.1C35.2,446.2,22,433.1,22,417V263.7v-22.3l0,0
			v-87.9c0-16.1,13.1-29.1,29.3-29.1h160.8l29.2,58.4h175.4c16.3,0,29.3,13.1,29.3,29.2v29.3L446.1,263.7z M65.8,104.3L65.8,104.3
			L65.8,104.3v-9.2c0-16.1,13.1-29.1,29.3-29.1H245l29.2,58.4h186.4c16.3,0,29.3,13.1,29.3,29.2v204.9c0,16.1-7.6,29.2-23.6,29.2
			h-0.1"/>
	</g>
</g>
<g>
	<path class="st0" d="M210.7,267.9c0,18.5-7.5,35-19.6,47.1c-12.1,12.1-28.8,19.6-47.1,19.6c-36.8,0-66.7-29.9-66.7-66.7
		s29.9-66.7,66.7-66.7S210.7,231.1,210.7,267.9z"/>
	<line class="st0" x1="260.2" y1="391.7" x2="191.2" y2="315"/>
</g>
</svg>

<?xml version="1.0" encoding="UTF-8" standalone="no"?>
<!DOCTYPE svg PUBLIC "-//W3C//DTD SVG 1.1//EN" "http://www.w3.org/Graphics/SVG/1.1/DTD/svg11.dtd">
<svg width="100%" height="100%" viewBox="0 0 512 512" version="1.1" xmlns="http://www.w3.org/2000/svg" xmlns:xlink="http://www.w3.org/1999/xlink" xml:space="preserve" xmlns:serif="http://www.serif.com/" style="fill-rule:evenodd;clip-rule:evenodd;stroke-linecap:round;stroke-linejoin:round;stroke-miterlimit:10;">
    <path id="folders" d="M446.1,263.7L446.1,417C446.1,433.1 433.1,446.2 417,446.2L51.1,446.2C35.2,446.2 22,433.1 22,417L22,263.7L22,241.4L22,153.5C22,137.4 35.1,124.4 51.3,124.4L212.1,124.4L241.3,182.8L416.7,182.8C433,182.8 446,195.9 446,212L446,241.3L446.1,263.7ZM65.8,104.3L65.8,95.1C65.8,79 78.9,66 95.1,66L245,66L274.2,124.4L460.6,124.4C476.9,124.4 489.9,137.5 489.9,153.6L489.9,358.5C489.9,374.6 482.3,387.7 466.3,387.7L466.2,387.7" style="fill:none;fill-rule:nonzero;stroke:white;stroke-width:20px;"/>
    <g>
        <path d="M210.7,267.9C210.7,286.4 203.2,302.9 191.1,315C179,327.1 162.3,334.6 144,334.6C107.2,334.6 77.3,304.7 77.3,267.9C77.3,231.1 107.2,201.2 144,201.2C180.8,201.2 210.7,231.1 210.7,267.9Z" style="fill:none;fill-rule:nonzero;stroke:white;stroke-width:20px;"/>
        <path d="M260.2,391.7L191.2,315" style="fill:none;fill-rule:nonzero;stroke:white;stroke-width:20px;"/>
    </g>
</svg>
